48x48/apps/com.transmissionbt.Transmission.svg

<svg xmlns="http://www.w3.org/2000/svg" width="48" height="48" version="1">
 <rect style="opacity:0.2" width="28" height="28" x="-45" y="-38" rx="3" ry="3" transform="matrix(0,-1,-1,0,0,0)"/>
 <rect style="fill:#cecece" width="28" height="28" x="-44" y="-38" rx="3" ry="3" transform="matrix(0,-1,-1,0,0,0)"/>
 <path style="opacity:0.2;fill:#f4f4f7" d="M 13 16 C 11.338 16 10 17.338 10 19 L 10 20 C 10 18.338 11.338 17 13 17 L 35 17 C 36.662 17 38 18.338 38 20 L 38 19 C 38 17.338 36.662 16 35 16 L 13 16 z"/>
 <path style="fill:#4f4f4f" d="m 24,20 -8,6 h 4 v 8 h -4 l 8,6 8,-6 h -4 v -8 h 4 z"/>
 <rect style="fill:#7e7e7e" width="8" height="24" x="20" y="-30" transform="scale(1,-1)"/>
 <rect style="opacity:0.2" width="8" height="24" x="-13" y="-36" rx="4" ry="4" transform="matrix(0,-1,-1,0,0,0)"/>
 <rect style="fill:#db4539" width="8" height="24" x="-12" y="-36" rx="4" ry="4" transform="matrix(0,-1,-1,0,0,0)"/>
 <rect style="opacity:0.1" width="8" height="1" x="20" y="30"/>
 <path style="opacity:0.2;fill:#f4f4f7" d="M 16 4 C 13.784 4 12 5.784 12 8 C 12 8.1712619 12.028141 8.3345228 12.048828 8.5 C 12.295816 6.5243261 13.955262 5 16 5 L 32 5 C 34.044738 5 35.704184 6.5243261 35.951172 8.5 C 35.971859 8.3345228 36 8.1712619 36 8 C 36 5.784 34.216 4 32 4 L 16 4 z"/>
 <path style="opacity:0.1" d="M 17.333984 25 L 16 26 L 20 26 L 20 25 L 17.333984 25 z M 28 25 L 28 26 L 32 26 L 30.666016 25 L 28 25 z M 16 34 L 24 40 L 32 34 L 30.666016 34 L 24 39 L 17.333984 34 L 16 34 z"/>
</svg>

<svg xmlns="http://www.w3.org/2000/svg" width="48" height="48" version="1"><rect style="opacity:.2" width="28" height="28" x="-45" y="-38" rx="3" ry="3" transform="matrix(0 -1 -1 0 0 0)"/><rect style="fill:#cecece" width="28" height="28" x="-44" y="-38" rx="3" ry="3" transform="matrix(0 -1 -1 0 0 0)"/><path style="opacity:.2;fill:#f4f4f7" d="M13 16c-1.662 0-3 1.338-3 3v1c0-1.662 1.338-3 3-3h22c1.662 0 3 1.338 3 3v-1c0-1.662-1.338-3-3-3H13z"/><path style="fill:#4f4f4f" d="m24 20-8 6h4v8h-4l8 6 8-6h-4v-8h4z"/><path style="fill:#7e7e7e" transform="scale(1 -1)" d="M20-30h8v24h-8z"/><rect style="opacity:.2" width="8" height="24" x="-13" y="-36" rx="4" ry="4" transform="matrix(0 -1 -1 0 0 0)"/><rect style="fill:#db4539" width="8" height="24" x="-12" y="-36" rx="4" ry="4" transform="matrix(0 -1 -1 0 0 0)"/><path style="opacity:.1" d="M20 30h8v1h-8z"/><path style="opacity:.2;fill:#f4f4f7" d="M16 4c-2.216 0-4 1.784-4 4 0 .171.028.335.049.5A3.978 3.978 0 0 1 16 5h16a3.978 3.978 0 0 1 3.951 3.5c.02-.165.049-.329.049-.5 0-2.216-1.784-4-4-4H16z"/><path style="opacity:.1" d="M17.334 25 16 26h4v-1h-2.666zM28 25v1h4l-1.334-1H28zm-12 9 8 6 8-6h-1.334L24 39l-6.666-5H16z"/></svg>
